clients/chineselasers/contact/images/org.svg

<svg width="100" height="100" xmlns="http://www.w3.org/2000/svg">

 <g>
  <title>background</title>
  <rect fill="none" id="canvas_background" height="402" width="582" y="-1" x="-1"/>
 </g>
 <g>
  <title>Layer 1</title>
  <path fill="none" fill-rule="nonzero" stroke="#f39237" stroke-width="4" id="path9260" d="m23.128904,12.287826c-2.30833,0 -4.16666,1.85833 -4.16666,4.16666c0,0 0,44.44449 0,66.66659c0,2.0834 2.08333,4.1667 4.16666,4.1667c6.94446,0 20.83332,0 20.83332,0l0,-12.5c0,-2.3083 2.2025,-4.1667 4.16667,-4.1667l4.16666,0c1.96416,0 4.16667,1.8584 4.16667,4.1667c0,4.1667 0,8.3333 0,12.5c0,0 13.88886,0 20.83331,0c2.08334,0 4.16667,-2.0833 4.16667,-4.1667c0,-22.222 0,-66.66659 0,-66.66659c0,-2.30833 -1.85833,-4.16666 -4.16667,-4.16666l-54.16663,0zm8.33333,12.49998l12.49999,0l0,8.33332l-12.49999,0l0,-8.33332zm24.99999,0l12.49999,0l0,8.33332l-12.49999,0l0,-8.33332zm-24.99999,24.99997l12.49999,0l0,8.3333l-12.49999,0l0,-8.3333zm24.99999,0l12.49999,0l0,8.3333l-12.49999,0l0,-8.3333z"/>
 </g>
</svg>

<?xml version="1.0" encoding="utf-8"?>
<!-- Generator: Adobe Illustrator 13.0.0, SVG Export Plug-In . SVG Version: 6.00 Build 14948)  -->
<!DOCTYPE svg PUBLIC "-//W3C//DTD SVG 1.1//EN" "http://www.w3.org/Graphics/SVG/1.1/DTD/svg11.dtd">
<svg version="1.1" id="Layer_1" xmlns="http://www.w3.org/2000/svg" xmlns:xlink="http://www.w3.org/1999/xlink" x="0px" y="0px"
	 width="100px" height="100px" viewBox="0 0 100 100" enable-background="new 0 0 100 100" xml:space="preserve">
<g>
	<title>Layer 1</title>
	<path id="path9260" fill="none" stroke="#2193A8" stroke-width="4" d="M23.129,12.288c-2.308,0-4.167,1.858-4.167,4.167
		c0,0,0,44.444,0,66.667c0,2.084,2.083,4.166,4.167,4.166c6.944,0,20.833,0,20.833,0v-12.5c0-2.308,2.202-4.166,4.167-4.166h4.166
		c1.965,0,4.168,1.858,4.168,4.166c0,4.168,0,8.334,0,12.5c0,0,13.889,0,20.832,0c2.084,0,4.168-2.082,4.168-4.166
		c0-22.223,0-66.667,0-66.667c0-2.309-1.859-4.167-4.168-4.167H23.129z M31.462,24.788h12.5v8.333h-12.5V24.788z M56.463,24.788
		h12.5v8.333h-12.5V24.788z M31.462,49.788h12.5v8.333h-12.5V49.788z M56.463,49.788h12.5v8.333h-12.5V49.788z"/>
</g>
</svg>
